X:8771
T:L' autre bout du monde - Valse/Walzer/Waltz
C:Jean Blanchard
Z:abc transcription Simon Wascher
N:please mail errors to simon.wascher@chello.at
M:3/4
L:1/4
K:D
 A>Bc/d/|cBA|GAB|EFG|
A>Bc/d/|cBA|GEF|D3:|
K:Dmixo
|:FEG|FAG|BB/A/B/c/|BAG|
FEG|FAF|1G>FE/D/|C3:|2GEF|D3||


